img/icn_service-3.svg

<svg enable-background="new 0 0 24 24" viewBox="0 0 24 24" xmlns="http://www.w3.org/2000/svg"><path clip-rule="evenodd" d="m10 23c0-1.1.9-2 2-2h2c.5 0 1 .2 1.4.6s.6.9.6 1.4v1h-6zm8 0c0-1.1.9-2 2-2h2c.5 0 1 .2 1.4.6s.6.9.6 1.4v1h-6zm-11.2-14c.6 0 1.3-.2 1.7-.4.8-.4 2.7-1.6 3.5-2.1.2-.1.5-.1.7.1.2.2.1.5 0 .7-.6.6-2.4 2.3-3.4 3.2-.5.5-.8 1.2-.9 1.9-.1 2.2-.3 6.9-.3 8.8-.1.4-.5.8-.9.8-.4 0-.8-.3-.8-.8-.1-1-.3-3.3-.4-4.2 0-.4-.3-.6-.6-.6s-.5.2-.5.6c-.1.9-.3 3.2-.3 4.2-.2.5-.6.8-1 .8-.5 0-.8-.4-.8-.8-.1-2.3-.4-9-.4-9l-1.3 2.3c-.1.3-.4.4-.7.3-.3-.1-.4-.4-.3-.7l1.2-4.4c.1-.4.5-.7.9-.7zm6.2 7c1.2 0 2.2 1 2.2 2.2s-1 2.2-2.2 2.2-2.2-1-2.2-2.2 1-2.2 2.2-2.2zm8 0c1.2 0 2.2 1 2.2 2.2s-1 2.2-2.2 2.2-2.2-1-2.2-2.2 1-2.2 2.2-2.2zm3-1h-14v-2h7v-1h3v1h2v-11h-20v4.4l-2 2v-8.4h24zm-7-5h-3v-1h3zm-11.6-6c1.2 0 2.2 1 2.2 2.2s-1 2.2-2.2 2.2-2.2-1-2.2-2.2.9-2.2 2.2-2.2zm14.6 4h-6v-1h6zm0-2h-6v-1h6z" fill="#fff" fill-rule="evenodd"/></svg>

<?xml version="1.0" encoding="utf-8"?>
<!-- Generator: Adobe Illustrator 24.1.2, SVG Export Plug-In . SVG Version: 6.00 Build 0)  -->
<svg version="1.1" id="レイヤー_1" xmlns="http://www.w3.org/2000/svg" xmlns:xlink="http://www.w3.org/1999/xlink" x="0px"
	 y="0px" viewBox="0 0 24 24" style="enable-background:new 0 0 24 24;" xml:space="preserve">
<style type="text/css">
	.st0{fill-rule:evenodd;clip-rule:evenodd;fill:#FFFFFF;}
</style>
<path class="st0" d="M10,23c0-1.1,0.9-2,2-2h2c0.5,0,1,0.2,1.4,0.6S16,22.5,16,23v1h-6V23z M18,23c0-1.1,0.9-2,2-2h2
	c0.5,0,1,0.2,1.4,0.6S24,22.5,24,23v1h-6V23z M6.8,9c0.6,0,1.3-0.2,1.7-0.4c0.8-0.4,2.7-1.6,3.5-2.1c0.2-0.1,0.5-0.1,0.7,0.1l0,0
	c0.2,0.2,0.1,0.5,0,0.7c-0.6,0.6-2.4,2.3-3.4,3.2c-0.5,0.5-0.8,1.2-0.9,1.9c-0.1,2.2-0.3,6.9-0.3,8.8C8,21.6,7.6,22,7.2,22h0
	c-0.4,0-0.8-0.3-0.8-0.8c-0.1-1-0.3-3.3-0.4-4.2c0-0.4-0.3-0.6-0.6-0.6c-0.3,0-0.5,0.2-0.5,0.6c-0.1,0.9-0.3,3.2-0.3,4.2
	C4.4,21.7,4,22,3.6,22h0c-0.5,0-0.8-0.4-0.8-0.8c-0.1-2.3-0.4-9-0.4-9l-1.3,2.3c-0.1,0.3-0.4,0.4-0.7,0.3h0
	c-0.3-0.1-0.4-0.4-0.3-0.7l1.2-4.4C1.4,9.3,1.8,9,2.2,9L6.8,9z M13,16c1.2,0,2.2,1,2.2,2.2s-1,2.2-2.2,2.2s-2.2-1-2.2-2.2
	S11.8,16,13,16z M21,16c1.2,0,2.2,1,2.2,2.2s-1,2.2-2.2,2.2s-2.2-1-2.2-2.2S19.8,16,21,16z M24,15H10v-2h7v-1h3v1h2V2H2v4.4l-2,2V0
	h24V15z M17,10h-3V9h3V10z M5.4,4c1.2,0,2.2,1,2.2,2.2s-1,2.2-2.2,2.2c-1.2,0-2.2-1-2.2-2.2S4.1,4,5.4,4z M20,8h-6V7h6V8z M20,6h-6
	V5h6V6z"/>
</svg>
